images/services/friends-icon.svg

<svg width="38" height="45" viewBox="0 0 38 45" fill="none" xmlns="http://www.w3.org/2000/svg">
<path d="M18.7122 21.7055C21.7264 21.7055 24.3364 20.636 26.469 18.5259C28.6016 16.4162 29.6826 13.8347 29.6826 10.8524C29.6826 7.87117 28.6016 5.28939 26.4686 3.17893C24.3357 1.0695 21.726 0 18.7122 0C15.6976 0 13.0883 1.0695 10.9557 3.17927C8.82311 5.28905 7.7417 7.87083 7.7417 10.8524C7.7417 13.8347 8.82311 16.4165 10.956 18.5263C13.089 20.6357 15.6987 21.7055 18.7122 21.7055Z" fill="#407BFF"/>
<path d="M37.9079 34.5887C37.8464 33.7106 37.722 32.7529 37.5389 31.7415C37.354 30.7225 37.116 29.7593 36.831 28.8788C36.5367 27.9689 36.1364 27.0702 35.6415 26.2091C35.1279 25.3152 34.5247 24.5369 33.8478 23.8965C33.1399 23.2264 32.2733 22.6877 31.2711 22.2948C30.2724 21.9039 29.1656 21.7059 27.9817 21.7059C27.5168 21.7059 27.0671 21.8946 26.1987 22.454C25.6643 22.7988 25.0391 23.1976 24.3413 23.6386C23.7447 24.0147 22.9364 24.3671 21.9381 24.6861C20.964 24.9979 19.9751 25.1561 18.999 25.1561C18.0228 25.1561 17.0342 24.9979 16.0591 24.6861C15.0618 24.3674 14.2536 24.0151 13.6576 23.639C12.9664 23.202 12.3409 22.8032 11.7985 22.4536C10.9312 21.8943 10.4812 21.7056 10.0162 21.7056C8.83194 21.7056 7.72551 21.9039 6.72716 22.2951C5.72568 22.6874 4.85868 23.2261 4.15014 23.8968C3.47356 24.5376 2.86996 25.3156 2.35706 26.2091C1.86257 27.0702 1.46226 27.9685 1.16758 28.8792C0.882985 29.7596 0.644951 30.7225 0.460084 31.7415C0.276954 32.7515 0.15255 33.7096 0.0910438 34.5897C0.0305796 35.4519 0 36.3467 0 37.2505C0 39.6027 0.755802 41.5068 2.24621 42.9112C3.7182 44.2969 5.66591 45 8.03444 45H29.9656C32.3341 45 34.2811 44.2973 35.7534 42.9112C37.2442 41.5079 38 39.6033 38 37.2502C37.9997 36.3423 37.9687 35.4467 37.9079 34.5887Z" fill="#407BFF"/>
</svg>

<?xml version="1.0" encoding="UTF-8"?>
<svg width="38" height="45" version="1.1" viewBox="0 0 38 45" xmlns="http://www.w3.org/2000/svg">
 <path d="m18.712 21.706c3.0142 0 5.6242-1.0695 7.7568-3.1796 2.1326-2.1097 3.2136-4.6912 3.2136-7.6735 0-2.9812-1.081-5.563-3.214-7.6735-2.1329-2.1094-4.7426-3.1789-7.7564-3.1789-3.0146 0-5.6239 1.0695-7.7565 3.1793-2.1326 2.1098-3.214 4.6916-3.214 7.6731 0 2.9823 1.0814 5.5641 3.2143 7.6739 2.133 2.1094 4.7427 3.1792 7.7562 3.1792z" fill="#FF725E"/>
 <path d="m37.908 34.589c-0.0615-0.8781-0.1859-1.8358-0.369-2.8472-0.1849-1.019-0.4229-1.9822-0.7079-2.8627-0.2943-0.9099-0.6946-1.8086-1.1895-2.6697-0.5136-0.8939-1.1168-1.6722-1.7937-2.3126-0.7079-0.6701-1.5745-1.2088-2.5767-1.6017-0.9987-0.3909-2.1055-0.5889-3.2894-0.5889-0.4649 0-0.9146 0.1887-1.783 0.7481-0.5344 0.3448-1.1596 0.7436-1.8574 1.1846-0.5966 0.3761-1.4049 0.7285-2.4032 1.0475-0.9741 0.3118-1.963 0.47-2.9391 0.47-0.9762 0-1.9648-0.1582-2.9399-0.47-0.9973-0.3187-1.8055-0.671-2.4015-1.0471-0.6912-0.437-1.3167-0.8358-1.8591-1.1854-0.8673-0.5593-1.3173-0.748-1.7823-0.748-1.1843 0-2.2907 0.1983-3.289 0.5895-1.0015 0.3923-1.8685 0.931-2.577 1.6017-0.67658 0.6408-1.2802 1.4188-1.7931 2.3123-0.49449 0.8611-0.8948 1.7594-1.1895 2.6701-0.2846 0.8804-0.52263 1.8433-0.7075 2.8623-0.18313 1.01-0.30753 1.9681-0.36904 2.8482-0.060464 0.8622-0.091044 1.757-0.091044 2.6608 0 2.3522 0.7558 4.2563 2.2462 5.6607 1.472 1.3857 3.4197 2.0888 5.7882 2.0888h21.931c2.3685 0 4.3155-0.7027 5.7878-2.0888 1.4908-1.4033 2.2466-3.3079 2.2466-5.661-3e-4 -0.9079-0.0313-1.8035-0.0921-2.6615z" fill="#FF725E"/>
</svg>
